X: 47
T:Auchadon Hoose
T:Auchadon House
N:irTrad, 6/99
D:Joe Ryan, "An Buchaille Dreoite"
Z:Paul de Grae 
M:2/4
L:1/8
Q:1/4=50
R:march
O:Shetland
K:G
GB/G/ DG/D/ |B,/C/ D/B,/ G,A/B/ | cBAG | E2 EF |
GB/G/ DG/D/ | B,/C/D/B,/ G,A/B/ | c/B/c/e/ dF |1 G2 GD :|2 G2 Ge/f/ |:
gfed | ed B>d | cBAG | E2 EF | GB/G/ DG/D/ |
B,/C/D/B,/ G,A/B/ | c/B/c/e/ dF |1 G2 Ge/f/ :|2 G2 G2 ||
